src/img/icons/status-error.svg

<svg width="32" height="32" viewBox="0 0 32 32" fill="none" xmlns="http://www.w3.org/2000/svg">
<path d="M16.0026 30C14.0662 30 12.246 29.6326 10.5422 28.8977C8.83839 28.1628 7.35635 27.1655 6.09611 25.9057C4.83586 24.646 3.83805 23.1646 3.10268 21.4615C2.36756 19.7584 2 17.9388 2 16.0026C2 14.0662 2.36744 12.246 3.10232 10.5422C3.83719 8.83839 4.83451 7.35635 6.09426 6.09611C7.35402 4.83586 8.83544 3.83805 10.5385 3.10268C12.2416 2.36756 14.0612 2 15.9974 2C17.9338 2 19.754 2.36744 21.4578 3.10232C23.1616 3.83719 24.6437 4.83451 25.9039 6.09426C27.1641 7.35402 28.1619 8.83544 28.8973 10.5385C29.6324 12.2416 30 14.0612 30 15.9974C30 17.9338 29.6326 19.754 28.8977 21.4578C28.1628 23.1616 27.1655 24.6437 25.9057 25.9039C24.646 27.1641 23.1646 28.1619 21.4615 28.8973C19.7584 29.6324 17.9388 30 16.0026 30Z" fill="#E22339"/>
<path d="M14.931 7.43051C15.218 7.14318 15.5742 6.99951 15.9995 6.99951C16.4245 6.99951 16.7808 7.14318 17.0685 7.43051C17.3562 7.71818 17.5 8.07451 17.5 8.49951L17.4995 16.5C17.4995 16.925 17.3558 17.2812 17.0685 17.5685C16.7815 17.8562 16.4253 18 16 18C15.575 18 15.2187 17.8562 14.931 17.5685C14.6433 17.2812 14.4995 16.925 14.4995 16.5L14.5 8.49951C14.5 8.07451 14.6437 7.71818 14.931 7.43051Z" fill="white"/>
<path d="M16 21.5006C15.5042 21.5006 15.0886 21.6683 14.7532 22.0037C14.4177 22.3392 14.25 22.7548 14.25 23.2505C14.25 23.7463 14.4177 24.1619 14.7532 24.4974C15.0886 24.8325 15.5042 25 16 25C16.4958 25 16.9114 24.8325 17.2468 24.4974C17.5823 24.1619 17.75 23.7463 17.75 23.2505C17.75 22.7548 17.5823 22.3392 17.2468 22.0037C16.9114 21.6683 16.4958 21.5006 16 21.5006Z" fill="white"/>
</svg>

<svg xmlns="http://www.w3.org/2000/svg" width="32" height="32" fill="none" viewBox="0 0 32 32">
  <path fill="#E22339" d="M16.003 30c-1.937 0-3.757-.367-5.46-1.102a14.14 14.14 0 0 1-4.447-2.992 14.138 14.138 0 0 1-2.993-4.444C2.368 19.758 2 17.939 2 16.002c0-1.936.367-3.756 1.102-5.46a14.14 14.14 0 0 1 2.992-4.446 14.14 14.14 0 0 1 4.445-2.993C12.242 2.368 14.06 2 15.997 2c1.937 0 3.757.367 5.46 1.102a14.14 14.14 0 0 1 4.447 2.992 14.14 14.14 0 0 1 2.993 4.445C29.632 12.242 30 14.06 30 15.997c0 1.937-.367 3.757-1.102 5.46a14.14 14.14 0 0 1-2.992 4.447 14.14 14.14 0 0 1-4.444 2.993c-1.704.735-3.523 1.103-5.46 1.103Z"/>
  <path fill="#fff" d="M14.931 7.43A1.45 1.45 0 0 1 16 7c.424 0 .78.143 1.069.43.287.288.431.645.431 1.07v8c0 .425-.144.781-.431 1.069A1.449 1.449 0 0 1 16 18c-.425 0-.781-.144-1.069-.431A1.45 1.45 0 0 1 14.5 16.5v-8c0-.425.144-.782.431-1.07ZM16 21.5c-.496 0-.911.168-1.247.504a1.693 1.693 0 0 0-.503 1.246c0 .496.168.912.503 1.247.336.335.751.503 1.247.503.496 0 .911-.168 1.247-.503.335-.335.503-.75.503-1.247 0-.495-.168-.91-.503-1.246A1.693 1.693 0 0 0 16 21.5Z"/>
</svg>
